!!!COM: Gaspar van Weerbeke
!!!CDT: ~1450-~1517
!!!OPR: In honorem sancti spiritus
!!!OTL: Spiritus domini
!!!ONM: 1
!!!AGN: Motet
!!!SCT: Gas0303a
!!!SCA: Gas0303a
!!!voices: 4
**kern	**text	**kern	**text	**kern	**text	**kern	**text
*part4	*part4	*part3	*part3	*part2	*part2	*part1	*part1
*staff4	*staff4	*staff3	*staff3	*staff2	*staff2	*staff1	*staff1
*I"Bassus	*	*I"Tenor	*	*I"Altus	*	*I"Superius	*
*I'B	*	*I'T	*	*I'A	*	*I'S	*
*clefF4	*	*clefGv2	*	*clefGv2	*	*clefG2	*
*k[]	*	*k[]	*	*k[]	*	*k[]	*
*M2/2	*	*M2/2	*	*M2/2	*	*M2/2	*
*met(C|)	*	*met(C|)	*	*met(C|)	*	*met(C|)	*
=1	=1	=1	=1	=1	=1	=1	=1
1G	Spi-	1r	.	[1G	Spi-	1r	.
=2	=2	=2	=2	=2	=2	=2	=2
2E	.	1r	.	2G]	.	1r	.
2E	-ri-	.	.	2G	-ri-	.	.
=3	=3	=3	=3	=3	=3	=3	=3
4D	-tus,	1r	.	2.A	-tus,	1r	.
2F	.	.	.	.	.	.	.
8EL	.	.	.	4B	.	.	.
8DJ	.	.	.	.	.	.	.
=4	=4	=4	=4	=4	=4	=4	=4
2.C	.	[1G	Spi-	1c	.	1r	.
8BBL	.	.	.	.	.	.	.
8AAJ	.	.	.	.	.	.	.
=5	=5	=5	=5	=5	=5	=5	=5
*	*	*	*	*	*edit	*	*
4GG	.	2G]	.	2.B	spi-	1r	.
4.G	.	.	.	.	.	.	.
.	.	2G	-ri-	.	.	.	.
8F	.	.	.	.	.	.	.
4E	.	.	.	4c	.	.	.
=6	=6	=6	=6	=6	=6	=6	=6
4D	.	2.A	-tus	4d	.	1r	.
4C	.	.	.	4e	.	.	.
2D	.	.	.	2f	-ri-	.	.
.	.	4B	.	.	.	.	.
=7	=7	=7	=7	=7	=7	=7	=7
1C	.	2.c	.	1e	-tus,	[1g	Spi-
.	.	8BL	.	.	.	.	.
.	.	8AJ	.	.	.	.	.
!!LO:LB:g=original
=8	=8	=8	=8	=8	=8	=8	=8
*	*edit	*	*	*	*	*	*
2E	spi-	1B	.	2g	spi-	2g]	.
2E	-ri-	.	.	8gL	-ri-	2g	-ri-
.	.	.	.	8f	.	.	.
.	.	.	.	8e	.	.	.
.	.	.	.	8dJ	.	.	.
=9	=9	=9	=9	=9	=9	=9	=9
4.F	-tus	2A	do-	4c	-tus	2.a	-tus
.	.	.	.	2F	.	.	.
8E	.	.	.	.	.	.	.
4D	.	2d	.	.	.	.	.
8CL	.	.	.	4G	.	4b	.
8BBJ	.	.	.	.	.	.	.
=10	=10	=10	=10	=10	=10	=10	=10
[1AA	.	4.c	.	4A	.	1cc	.
.	.	.	.	8GL	.	.	.
.	.	8B	.	8FJ	.	.	.
.	.	4A	.	2E	.	.	.
.	.	8GL	.	.	.	.	.
.	.	8FJ	.	.	.	.	.
=11	=11	=11	=11	=11	=11	=11	=11
1AA]	.	2E	.	2r	.	2.cc	do-
*	*	*	*	*	*Xedit	*	*
.	.	2F	.	2A	do-	.	.
.	.	.	.	.	.	8bL	.
.	.	.	.	.	.	8aJ	.
=12	=12	=12	=12	=12	=12	=12	=12
*	*	*	*	*	*	*lig	*
*	*Xedit	*	*	*	*	*	*
2GG	do-	2G	.	4.D	.	2b	.
.	.	.	.	8E	.	.	.
2D	.	2A	.	4.F	.	2a	.
.	.	.	.	8E	.	.	.
*	*	*	*	*	*	*Xlig	*
=13	=13	=13	=13	=13	=13	=13	=13
4.G	.	2B	.	4G	.	4g	.
.	.	.	.	4d	.	2g	.
8FL	.	.	.	.	.	.	.
8E	.	2c	.	2e	.	.	.
8DJ	.	.	.	.	.	.	.
4C	.	.	.	.	.	8fL	.
.	.	.	.	.	.	8eJ	.
=14	=14	=14	=14	=14	=14	=14	=14
2D	-mi-	2A	-mi-	2d	-mi-	2f	-mi-
4G	-ni,	4B	-ni,	4B	-ni,	4g	-ni,
*	*edit	*	*edit	*	*edit	*	*edit
[4F	do-	[4c	do-	[4A	do-	[4a	do-
=15	=15	=15	=15	=15	=15	=15	=15
8FL]	.	4c]	.	8AL]	.	8aL]	.
8EJ	.	.	.	8GJ	.	8b	.
4F	.	8BL	.	4A	.	8cc	.
.	.	8AJ	.	.	.	8ddJ	.
4G	.	4G	.	4B	.	4b	.
*	*	*	*	*	*	*lig	*
4D	.	4F	.	[4d	.	[4a	.
!!LO:LB:g=original
=16	=16	=16	=16	=16	=16	=16	=16
*lig	*	*	*	*	*	*	*
2E	.	2G	.	4d]	.	4a]	.
.	.	.	.	4c	.	2g	.
*	*	*	*	*	*	*Xlig	*
2D	.	2A	-mi-	2d	.	.	.
.	.	.	.	.	.	4f#i	-mi-
*Xlig	*	*	*	*	*	*	*
=17	=17	=17	=17	=17	=17	=17	=17
2E	-mi-	1G	-ni	2B	-mi-	[1g	-ni
4BB	.	.	.	4d	.	.	.
[4C	-ni	.	.	[4e	-ni	.	.
=18	=18	=18	=18	=18	=18	=18	=18
*	*	*	*Xedit	*	*	*	*
4C]	.	2c	re-	4e]	.	1g]	.
8BBL	.	.	.	8dL	.	.	.
8AAJ	.	.	.	8cJ	.	.	.
2GG	.	2B	.	2d	.	.	.
=19	=19	=19	=19	=19	=19	=19	=19
2r	.	4A	.	2c	.	2r	.
.	.	2c	.	.	.	.	.
*	*	*	*	*	*	*lig	*
*	*Xedit	*	*	*	*	*	*Xedit
2F	re-	.	.	2A	.	2cc	re-
.	.	8BL	.	.	.	.	.
.	.	8AJ	.	.	.	.	.
=20	=20	=20	=20	=20	=20	=20	=20
2G	.	2G	.	4r	.	2b	.
*	*	*	*	*	*Xedit	*	*
.	.	.	.	4B	re-	.	.
*	*	*	*	*	*	*Xlig	*
[2A	-ple-	2F	.	4c	.	4a	.
.	.	.	.	[4A	.	[4cc	.
=21	=21	=21	=21	=21	=21	=21	=21
4A]	.	8FL	-ple-	8AL]	.	4cc]	.
.	.	8G	.	8B	.	.	.
8GL	.	8A	.	8c	.	8bL	.
8FJ	.	8BJ	.	8dJ	.	8aJ	.
*	*	*	*	*	*	*lig	*
2E	.	2c	.	2e	.	2g	.
=22	=22	=22	=22	=22	=22	=22	=22
1D	-vit	2.d	.	2.f	-ple-	2f	.
*	*	*	*	*	*	*Xlig	*
.	.	.	.	.	.	8fL	-ple-
.	.	.	.	.	.	8g	.
.	.	8cL	.	8eL	.	8a	.
.	.	8BJ	.	8dJ	.	8bJ	.
=23	=23	=23	=23	=23	=23	=23	=23
1r	.	2A	.	2e	.	2cc	.
.	.	[2D	-vit	4.d	.	[2dd	.
.	.	.	.	8e	.	.	.
!!LO:LB:g=original
=24	=24	=24	=24	=24	=24	=24	=24
1r	.	1D]	.	4f	.	4dd]	.
.	.	.	.	2g	.	8ccL	.
.	.	.	.	.	.	8bJ	.
.	.	.	.	.	.	2a	.
.	.	.	.	4f#j	.	.	.
=25	=25	=25	=25	=25	=25	=25	=25
1GG	or-	1r	.	1g	-vit	1b	-vit
=26	=26	=26	=26	=26	=26	=26	=26
*	*	*	*	*	*	*	*edit
2GG	-bem	1r	.	2r	.	2g	or-
[2C	ter-	.	.	2G	or-	[2e	-bem
=27	=27	=27	=27	=27	=27	=27	=27
2C]	.	1r	.	4A	.	4e]	.
.	.	.	.	4G	.	2g	ter-
2C	-ra-	.	.	2c	.	.	.
.	.	.	.	.	.	8fL	.
.	.	.	.	.	.	8eJ	.
=28	=28	=28	=28	=28	=28	=28	=28
2D	.	1r	.	4B	.	2f	.
.	.	.	.	2A	.	.	.
*	*	*	*	*	*	*lig	*
2F	.	.	.	.	.	2d	.
.	.	.	.	[4d	.	.	.
=29	=29	=29	=29	=29	=29	=29	=29
2E	.	1r	.	4d]	.	2g	.
.	.	.	.	4c	.	.	.
*	*	*	*	*	*	*Xlig	*
2D	.	.	.	2d	-bem	2f	.
=30	=30	=30	=30	=30	=30	=30	=30
2.F	.	1r	.	1r	.	4d	.
.	.	.	.	.	.	2a	-ra-
8EL	.	.	.	.	.	8gL	.
8CJ	.	.	.	.	.	8fJ	.
=31	=31	=31	=31	=31	=31	=31	=31
4E	.	1r	.	1r	.	8gL	.
.	.	.	.	.	.	8f	.
2D	.	.	.	.	.	8e	.
.	.	.	.	.	.	8dJ	.
*	*	*	*	*	*	*lig	*
.	.	.	.	.	.	2e	-rum,
4C	.	.	.	.	.	.	.
!!LO:PB:g=original
=32	=32	=32	=32	=32	=32	=32	=32
*lig	*	*	*	*	*	*	*
2D	-rum,	2.A	ter-	1r	.	2d	.
*	*	*	*	*	*	*Xlig	*
2AA	.	.	.	.	.	2r	.
.	.	8GL	.	.	.	.	.
.	.	8FJ	.	.	.	.	.
*Xlig	*	*	*	*	*	*	*
=33	=33	=33	=33	=33	=33	=33	=33
*	*edit	*	*	*	*	*	*
2BB	ter-	8GL	.	1r	.	1r	.
.	.	8F	.	.	.	.	.
.	.	8E	.	.	.	.	.
.	.	8DJ	.	.	.	.	.
2C	.	2E	.	.	.	.	.
=34	=34	=34	=34	=34	=34	=34	=34
2.D	-ra-	4.D	-ra-	1r	.	1r	.
.	.	8E	.	.	.	.	.
.	.	4F	.	.	.	.	.
4BB	.	4G	.	.	.	.	.
=35	=35	=35	=35	=35	=35	=35	=35
4C	.	4E	.	1r	.	1r	.
2D	.	2F	.	.	.	.	.
[4E	.	4G	.	.	.	.	.
=36	=36	=36	=36	=36	=36	=36	=36
4E]	.	4E	.	1r	.	1r	.
4C	.	2A	.	.	.	.	.
4D	.	.	.	.	.	.	.
4E	.	4G	.	.	.	.	.
=37	=37	=37	=37	=37	=37	=37	=37
2F	.	4A	.	1r	.	1r	.
.	.	2c	.	.	.	.	.
2E	.	.	.	.	.	.	.
.	.	8BL	.	.	.	.	.
.	.	8AJ	.	.	.	.	.
=38	=38	=38	=38	=38	=38	=38	=38
4D	.	4B	.	1r	.	1r	.
4C	.	2A	.	.	.	.	.
2BB-i	.	.	.	.	.	.	.
.	.	4G	.	.	.	.	.
=39	=39	=39	=39	=39	=39	=39	=39
1AA	-rum,	1A	-rum,	2r	.	1r	.
.	.	.	.	2c	Al-	.	.
!!LO:LB:g=original
=40	=40	=40	=40	=40	=40	=40	=40
*	*	*	*	*	*	*	*Xedit
1r	.	1r	.	4c	-le-	2.g	Al-
.	.	.	.	8BL	.	.	.
.	.	.	.	8AJ	.	.	.
.	.	.	.	4.G	.	.	.
.	.	.	.	.	.	8fL	.
.	.	.	.	8A	.	8eJ	.
=41	=41	=41	=41	=41	=41	=41	=41
1r	.	1r	.	8BL	.	4.d	.
.	.	.	.	8cJ	.	.	.
.	.	.	.	2d	.	.	.
.	.	.	.	.	.	8eL	.
.	.	.	.	.	.	8f	.
.	.	.	.	.	.	8gJ	.
.	.	.	.	8cL	.	[4a	-le-
.	.	.	.	8BJ	.	.	.
=42	=42	=42	=42	=42	=42	=42	=42
1r	.	1r	.	4A	.	4a]	.
.	.	.	.	2d	-lu-	8gL	.
.	.	.	.	.	.	8fJ	.
.	.	.	.	.	.	2e	.
.	.	.	.	4c	.	.	.
=43	=43	=43	=43	=43	=43	=43	=43
1r	.	2r	.	4B	.	4d	.
.	.	.	.	4G	.	2g	-lu-
.	.	2D	Al-	2A	.	.	.
.	.	.	.	.	.	4f#j	.
=44	=44	=44	=44	=44	=44	=44	=44
2r	.	4E	.	4.G	-ia,	4.g	.
.	.	4.G	-le-	.	.	.	.
.	.	.	.	8F	.	8aL	.
4r	.	.	.	4E	.	8b	.
.	.	8A	.	.	.	8ccJ	.
*	*Xedit	*	*	*	*	*	*
[4GG	Al-	[4B	.	[4D	.	[4dd	.
=45	=45	=45	=45	=45	=45	=45	=45
4GG]	.	4B]	.	4D]	.	8ddL]	.
.	.	.	.	.	.	8ccJ	.
*	*	*	*	*	*edit	*	*
4.AA	.	2c	.	4.C	al-	4a	.
.	.	.	.	.	.	2g	-ia,
8BBL	.	.	.	8DL	.	.	.
8C	.	8BL	.	8E	.	.	.
8DJ	.	8AJ	.	8FJ	.	.	.
=46	=46	=46	=46	=46	=46	=46	=46
4E	.	4G	.	4G	.	4r	.
*	*	*	*	*	*	*	*edit
2F	-le-	2A	-lu-	4F	.	2cc	al-
.	.	.	.	4f	-le-	.	.
4G	.	4B	.	[4e	.	4b	.
=47	=47	=47	=47	=47	=47	=47	=47
4A	-lu-	4c	.	4e]	.	8aL	-le-
.	.	.	.	.	.	8g	.
4D	.	4d	.	4.d	.	8f	.
.	.	.	.	.	.	8eJ	.
2E	.	2G	.	.	.	4d	.
.	.	.	.	8c	.	.	.
.	.	.	.	4c	.	[4g	-lu-
!!LO:LB:g=original
=48	=48	=48	=48	=48	=48	=48	=48
*lig	*	*	*	*	*	*	*
1D	-ia,	1A	.	2d	.	4g]	.
.	.	.	.	.	.	4e	.
.	.	.	.	2d	-lu-	2f#i	.
=49	=49	=49	=49	=49	=49	=49	=49
1E	.	1G	-ia,	1B	-ia,	1g	-ia,
*Xlig	*	*	*	*	*	*	*
=50	=50	=50	=50	=50	=50	=50	=50
*	*	*	*	*	*Xedit	*	*
2.E	Et	1r	.	2.G	Et	1r	.
[4F	.	.	.	[4A	.	.	.
=51	=51	=51	=51	=51	=51	=51	=51
8FL]	.	2r	.	8AL]	.	1r	.
8EJ	.	.	.	8GJ	.	.	.
4C	.	.	.	2c	.	.	.
2D	.	2F	Et	.	.	.	.
.	.	.	.	4B	.	.	.
=52	=52	=52	=52	=52	=52	=52	=52
[1C	hoc,	2G	.	1c	hoc	1r	.
.	.	4G	.	.	.	.	.
.	.	[4A	.	.	.	.	.
=53	=53	=53	=53	=53	=53	=53	=53
2C]	.	8AL]	.	1r	.	2r	.
.	.	8GJ	.	.	.	.	.
.	.	2c	.	.	.	.	.
*	*edit	*	*	*	*	*	*Xedit
2D	et	.	.	.	.	2f	Et
.	.	4B	.	.	.	.	.
=54	=54	=54	=54	=54	=54	=54	=54
1C	hoc	[1c	hoc,	1r	.	4e	.
.	.	.	.	.	.	2g	.
.	.	.	.	.	.	[4a	.
=55	=55	=55	=55	=55	=55	=55	=55
1r	.	2c]	.	1r	.	8aL]	.
.	.	.	.	.	.	8gJ	.
.	.	.	.	.	.	2cc	.
*	*	*	*edit	*	*	*	*
.	.	2d	et	.	.	.	.
.	.	.	.	.	.	4b	.
=56	=56	=56	=56	=56	=56	=56	=56
4r	.	2c	hoc	1r	.	1cc	hoc
*	*Xedit	*	*	*	*	*	*
4C	quod	.	.	.	.	.	.
4.C	con-	4r	.	.	.	.	.
*	*	*	*Xedit	*	*	*	*
.	.	4c	quod	.	.	.	.
8D	.	.	.	.	.	.	.
!!LO:LB:g=original
=57	=57	=57	=57	=57	=57	=57	=57
4E	.	2.c	con-	1r	.	1r	.
2F	.	.	.	.	.	.	.
4G	.	4B	.	.	.	.	.
=58	=58	=58	=58	=58	=58	=58	=58
4A	.	2c	.	1r	.	1r	.
4E	.	.	.	.	.	.	.
2F	.	2A	.	.	.	.	.
=59	=59	=59	=59	=59	=59	=59	=59
*	*	*lig	*	*	*	*	*
2G	.	2B	.	1r	.	1r	.
2D	.	2A	.	.	.	.	.
*	*	*Xlig	*	*	*	*	*
=60	=60	=60	=60	=60	=60	=60	=60
4r	.	4.G	-ti-	1r	.	1r	.
2E	-ti-	.	.	.	.	.	.
.	.	8A	.	.	.	.	.
.	.	4B	.	.	.	.	.
8DL	.	[4c	.	.	.	.	.
8CJ	.	.	.	.	.	.	.
=61	=61	=61	=61	=61	=61	=61	=61
4.F	.	8c]L	.	1r	.	1r	.
.	.	8B	.	.	.	.	.
.	.	8A	.	.	.	.	.
8EL	.	8G	.	.	.	.	.
8D	.	8F	.	.	.	.	.
8CJ	.	8EJ	.	.	.	.	.
4D	.	[4A	.	.	.	.	.
=62	=62	=62	=62	=62	=62	=62	=62
4C	.	8AL]	.	1r	.	2r	.
.	.	8GJ	.	.	.	.	.
4BB	.	2G	.	.	.	.	.
2AA	.	.	.	.	.	2cc	om-
.	.	4F#i	.	.	.	.	.
=63	=63	=63	=63	=63	=63	=63	=63
2GG	-net	1G	-net	2r	.	4.b	.
.	.	.	.	.	.	8aL	.
2r	.	.	.	4.G	om-	8g	.
.	.	.	.	.	.	8fJ	.
.	.	.	.	.	.	[4g	.
.	.	.	.	8A	.	.	.
=64	=64	=64	=64	=64	=64	=64	=64
1r	.	1r	.	8BL	.	4g]	.
.	.	.	.	8cJ	.	.	.
.	.	.	.	2d	.	2f	.
.	.	.	.	[4e	.	8eL	.
.	.	.	.	.	.	8dJ	.
!!LO:PB:g=original
=65	=65	=65	=65	=65	=65	=65	=65
1r	.	1r	.	4e]	.	4c	.
.	.	.	.	8dL	.	2g	.
.	.	.	.	8c	.	.	.
.	.	.	.	8B	.	.	.
.	.	.	.	8AJ	.	.	.
.	.	.	.	[4d	.	[4f	.
=66	=66	=66	=66	=66	=66	=66	=66
1r	.	1r	.	4d]	.	4f]	.
.	.	.	.	2c	.	4e	.
.	.	.	.	.	.	2d	-ni-
.	.	.	.	4B	-ni-	.	.
=67	=67	=67	=67	=67	=67	=67	=67
1r	.	1r	.	4c	-a,	4c	-a,
.	.	.	.	4c	sci-	2cc	sci-
.	.	.	.	2d	-en-	.	.
.	.	.	.	.	.	4b	.
=68	=68	=68	=68	=68	=68	=68	=68
*	*	*	*	*	*	*lig	*
1r	.	1r	.	4.c	.	2cc	-en-
.	.	.	.	8A	.	.	.
.	.	.	.	2B	-ti-	2dd	.
*	*	*	*	*	*	*Xlig	*
=69	=69	=69	=69	=69	=69	=69	=69
1r	.	1r	.	2A	-am	4.cc	-ti-
.	.	.	.	.	.	8a	.
*	*	*	*	*	*	*lig	*
.	.	.	.	2r	.	2b	-am
=70	=70	=70	=70	=70	=70	=70	=70
2r	.	2c	sci-	1r	.	2a	.
*	*	*	*	*	*	*Xlig	*
2G	sci-	2d	.	.	.	2r	.
=71	=71	=71	=71	=71	=71	=71	=71
2A	.	4.c	-en-	1r	.	1r	.
.	.	8A	.	.	.	.	.
4G	-en-	4B	.	.	.	.	.
4F	.	[4A	.	.	.	.	.
=72	=72	=72	=72	=72	=72	=72	=72
2D	.	4A]	.	1r	.	1r	.
.	.	8GL	.	.	.	.	.
.	.	8FJ	.	.	.	.	.
4C	.	4E	.	.	.	.	.
4D	.	[4A	.	.	.	.	.
=73	=73	=73	=73	=73	=73	=73	=73
2BB-j	-ti-	4A]	.	1r	.	1r	.
.	.	4G	-ti-	.	.	.	.
2AA	-am	2A	-am,	.	.	.	.
!!LO:LB:g=original
=74	=74	=74	=74	=74	=74	=74	=74
*	*	*	*	*lig	*	*	*
1r	.	1r	.	2d	ha-	2r	.
*	*	*	*	*	*	*lig	*
.	.	.	.	2e	.	2b	ha-
*	*	*	*	*Xlig	*	*	*
=75	=75	=75	=75	=75	=75	=75	=75
*lig	*	*	*	*	*	*	*
2C	ha-	1r	.	2c	-bet	2cc	.
*	*	*	*	*	*	*Xlig	*
2D	.	.	.	2r	.	2a	-bet
*Xlig	*	*	*	*	*	*	*
=76	=76	=76	=76	=76	=76	=76	=76
*	*	*	*	*lig	*	*	*
2GG	-bet,	1r	.	2B	vo-	2r	.
*	*	*	*	*	*	*lig	*
2r	.	.	.	2c	.	2g	vo-
*	*	*	*	*Xlig	*	*	*
=77	=77	=77	=77	=77	=77	=77	=77
1r	.	1r	.	2A	-cis,	2a	.
*	*	*	*	*	*	*Xlig	*
.	.	.	.	4r	.	2f	-cis,
.	.	.	.	[4c	Al-	.	.
=78	=78	=78	=78	=78	=78	=78	=78
1r	.	2A	Al-	4c]	.	4r	.
.	.	.	.	2A	.	2cc	Al-
.	.	2F	.	.	.	.	.
.	.	.	.	8GL	.	8bL	.
.	.	.	.	8FJ	.	8aJ	.
=79	=79	=79	=79	=79	=79	=79	=79
2E	Al-	2G	.	4E	.	2b	-le-
.	.	.	.	4e	-le-	.	.
2F	.	2A	-le-	4c	.	4a	.
.	.	.	.	[4f	-lu-	[4cc	-lu-
=80	=80	=80	=80	=80	=80	=80	=80
2.F	-le-	4.A	-lu-	8fL]	.	8ccL]	.
.	.	.	.	8eJ	.	8b	.
.	.	.	.	4c	.	8a	.
.	.	8B	.	.	.	8gJ	.
.	.	4c	.	4f	.	4a	.
4G	.	4B	.	4d	.	[4g	.
=81	=81	=81	=81	=81	=81	=81	=81
4E	-lu-	4c	.	4e	.	4g]	.
4F	.	4A	.	2.c	-ia,	2f	.
2C	-ia,	2G	.	.	.	.	.
.	.	.	.	.	.	4e	.
=82	=82	=82	=82	=82	=82	=82	=82
*	*	*	*	*	*edit	*	*
2.D	al-	[1F	-ia,	2.A	al-	2f	-ia,
.	.	.	.	.	.	2r	.
8CL	.	.	.	4B	.	.	.
8BBJ	.	.	.	.	.	.	.
!!LO:LB:g=original
=83	=83	=83	=83	=83	=83	=83	=83
*	*	*	*	*	*	*lig	*
4AA	.	2F]	.	4c	-le-	2f	al-
4BB-X	.	.	.	4d	.	.	.
4AA	.	2F	al-	4c	.	2a	.
4FF	.	.	.	[4f	-lu-	.	.
*	*	*	*	*	*	*Xlig	*
=84	=84	=84	=84	=84	=84	=84	=84
4.F	-le-	2A	.	4f]	.	2cc	.
.	.	.	.	8eL	.	.	.
8G	.	.	.	8dJ	.	.	.
4A	.	2c	.	2c	-ia,	4cc	-le-
[4F	.	.	.	.	.	4cc	-lu-
=85	=85	=85	=85	=85	=85	=85	=85
4F]	.	2c	-le-	1r	.	4a	.
8EL	.	.	.	.	.	8gL	.
8DJ	.	.	.	.	.	8fJ	.
2C	.	2c	-lu-	.	.	4e	.
.	.	.	.	.	.	[4g	.
=86	=86	=86	=86	=86	=86	=86	=86
1G	-lu-	1B	.	1r	.	4g]	.
.	.	.	.	.	.	8fL	.
.	.	.	.	.	.	8eJ	.
*	*	*	*	*	*	*lig	*
.	.	.	.	.	.	2d	-ia,
=87	=87	=87	=87	=87	=87	=87	=87
2C	.	2c	.	1r	.	2c	.
*	*	*	*	*	*	*Xlig	*
2D	.	2A	.	.	.	2r	.
=88	=88	=88	=88	=88	=88	=88	=88
2E	.	2G	.	1r	.	1r	.
[2D	.	4B	.	.	.	.	.
.	.	[4A	.	.	.	.	.
=89	=89	=89	=89	=89	=89	=89	=89
2D]	.	4A]	.	1r	.	1r	.
.	.	8GL	.	.	.	.	.
.	.	8FJ	.	.	.	.	.
4C	.	4E	.	.	.	.	.
4BB	.	4D	.	.	.	.	.
=90	=90	=90	=90	=90	=90	=90	=90
2AA	.	4.F	.	1r	.	1r	.
.	.	8G	.	.	.	.	.
4GG	.	4B-i	.	.	.	.	.
[4D	.	[4A	.	.	.	.	.
=91	=91	=91	=91	=91	=91	=91	=91
4D]	.	4A]	.	2r	.	1r	.
4BB	.	2G	.	.	.	.	.
*	*	*	*	*	*Xedit	*	*
2AA	.	.	.	2c	al-	.	.
.	.	4F#i	.	.	.	.	.
!!LO:LB:g=original
=92	=92	=92	=92	=92	=92	=92	=92
1GG	-ia,	1G	-ia,	4.B	-le-	2r	.
.	.	.	.	8cL	.	.	.
*	*	*	*	*	*	*lig	*
.	.	.	.	8d	.	2g	al-
.	.	.	.	8eJ	.	.	.
.	.	.	.	[4d	-lu-	.	.
=93	=93	=93	=93	=93	=93	=93	=93
2D	al-	1r	.	8dL]	.	2a	.
.	.	.	.	8e	.	.	.
.	.	.	.	8f	.	.	.
.	.	.	.	8gJ	.	.	.
*	*	*	*	*	*	*Xlig	*
2D	-le-	.	.	2f	.	2a	-le-
=94	=94	=94	=94	=94	=94	=94	=94
2E	.	2G	al-	2g	.	4g	-lu-
.	.	.	.	.	.	4b	.
*	*	*	*	*	*edit	*	*
2F	.	2A	.	2c	-ia,	4a	.
*	*	*	*	*	*	*lig	*
.	.	.	.	.	.	[4cc	.
=95	=95	=95	=95	=95	=95	=95	=95
2F	-lu-	2A	-le-	4r	.	4cc]	.
.	.	.	.	4c	al-	2a	.
*	*	*	*	*	*	*Xlig	*
2D	.	8FL	-lu-	2d	-le-	.	.
.	.	8G	.	.	.	.	.
.	.	8A	.	.	.	8gL	.
.	.	8BJ	.	.	.	8fJ	.
=96	=96	=96	=96	=96	=96	=96	=96
2C	.	2c	.	4.G	-lu-	2e	.
.	.	.	.	8A	.	.	.
*	*	*	*	*	*	*	*edit
2G	.	4B	.	8BL	.	4d	-ia,
.	.	.	.	8c	.	.	.
.	.	4G	.	8d	.	[4dd	al-
.	.	.	.	8eJ	.	.	.
=97	=97	=97	=97	=97	=97	=97	=97
4r	.	2A	.	8fL	.	4dd]	.
.	.	.	.	8gJ	.	.	.
4F	.	.	.	4a	.	4cc	.
4G	.	4B	.	4g	.	4b	-le-
4F	.	4c	.	4a	.	[4a	-lu-
=98	=98	=98	=98	=98	=98	=98	=98
4D	.	4d	.	4f	.	4a]	.
4G	.	4B	.	2.d	.	2g	.
2D	.	2A	.	.	.	.	.
.	.	.	.	.	.	4f#i	.
=99	=99	=99	=99	=99	=99	=99	=99
*	*	*	*	*	*Xedit	*	*
1GGl	-ia.	1Gl	-ia.	1dl	-ia.	1gl	-ia.
==	==	==	==	==	==	==	==
*-	*-	*-	*-	*-	*-	*-	*-
!!!system-decoration: [*]
!!!RDF**kern: j = editorial accidental, optional, paren up
!!!RDF**kern: i = editorial accidental
!!!RDF**kern: l = terminal breve
!!!PTL: Gaspar van Weerbeke: Collected Works. III. The Motet Cycles
!!!PPR: American Institute of Musicology
!!!PC#: Corpus Mensurabilis Musicae 106/III
!!!PDT: 1998
!!!PED: Lindmayr-Brandl, Andrea
!!!YEC: Copyright 1998, Lindmayr-Brandl, Andrea
!!!YEM: CC-BY-NC 4.0 (https://creativecommons.org/licenses/by-nc/4.0/legalcode)
!!!EED: Mair-Gruber, Roland
!!!EEV: 2021/11/09
